Newaita-dark/actions/16/object-rotate-left.svg

<svg height="16" viewBox="0 0 16 16" width="16" xmlns="http://www.w3.org/2000/svg"><g fill="#e0e0e0"><path d="m2.644531 1.449219c-.730469 0-1.320312.589843-1.320312 1.320312v4.632813c0 .730468.589843 1.324218 1.320312 1.324218h2.648438c.730469 0 1.320312-.59375 1.320312-1.324218v-4.632813c0-.730469-.589843-1.320312-1.320312-1.320312zm.664063 1.320312h1.320312c.367188 0 .664063.296875.664063.664063v3.304687c0 .367188-.296875.664063-.664063.664063h-1.320312c-.367188 0-.664063-.296875-.664063-.664063v-3.304687c0-.367188.296875-.664063.664063-.664063zm0 0"/><path d="m14.554688 10.710938c0-.734376-.589844-1.324219-1.324219-1.324219h-4.628907c-.734374 0-1.324218.589843-1.324218 1.324219v2.644531c0 .734375.589844 1.324219 1.324218 1.324219h4.628907c.734375 0 1.324219-.589844 1.324219-1.324219zm0 0"/><path d="m7.9375 4.394531v1.53125c.855469.554688 1.582031 1.285157 2.136719 2.136719h1.53125c-.8125-1.570312-2.097657-2.851562-3.667969-3.667969zm0 0"/></g></svg>

<svg xmlns="http://www.w3.org/2000/svg" xmlns:xlink="http://www.w3.org/1999/xlink" width="16px" height="16px" viewBox="0 0 16 16" version="1.1">
<g id="surface1">
     <defs>
  <style id="current-color-scheme" type="text/css">
   .ColorScheme-Text { color:#eeeeee; } .ColorScheme-Highlight { color:#424242; }
  </style>
 </defs>
<path style="fill:currentColor" class="ColorScheme-Text" d="M 2.644531 1.449219 C 1.914062 1.449219 1.324219 2.039062 1.324219 2.769531 L 1.324219 7.402344 C 1.324219 8.132812 1.914062 8.726562 2.644531 8.726562 L 5.292969 8.726562 C 6.023438 8.726562 6.613281 8.132812 6.613281 7.402344 L 6.613281 2.769531 C 6.613281 2.039062 6.023438 1.449219 5.292969 1.449219 Z M 3.308594 2.769531 L 4.628906 2.769531 C 4.996094 2.769531 5.292969 3.066406 5.292969 3.433594 L 5.292969 6.738281 C 5.292969 7.105469 4.996094 7.402344 4.628906 7.402344 L 3.308594 7.402344 C 2.941406 7.402344 2.644531 7.105469 2.644531 6.738281 L 2.644531 3.433594 C 2.644531 3.066406 2.941406 2.769531 3.308594 2.769531 Z M 3.308594 2.769531 "/>
     <defs>
  <style id="current-color-scheme" type="text/css">
   .ColorScheme-Text { color:#eeeeee; } .ColorScheme-Highlight { color:#424242; }
  </style>
 </defs>
<path style="fill:currentColor" class="ColorScheme-Text" d="M 14.554688 10.710938 C 14.554688 9.976562 13.964844 9.386719 13.230469 9.386719 L 8.601562 9.386719 C 7.867188 9.386719 7.277344 9.976562 7.277344 10.710938 L 7.277344 13.355469 C 7.277344 14.089844 7.867188 14.679688 8.601562 14.679688 L 13.230469 14.679688 C 13.964844 14.679688 14.554688 14.089844 14.554688 13.355469 Z M 14.554688 10.710938 "/>
     <defs>
  <style id="current-color-scheme" type="text/css">
   .ColorScheme-Text { color:#eeeeee; } .ColorScheme-Highlight { color:#424242; }
  </style>
 </defs>
<path style="fill:currentColor" class="ColorScheme-Text" d="M 7.9375 4.394531 L 7.9375 5.925781 C 8.792969 6.480469 9.519531 7.210938 10.074219 8.0625 L 11.605469 8.0625 C 10.792969 6.492188 9.507812 5.210938 7.9375 4.394531 Z M 7.9375 4.394531 "/>
</g>
</svg>
